src/assets/contact/facebook.svg

<?xml version="1.0" encoding="utf-8"?>
<!-- Generator: Adobe Illustrator 13.0.0, SVG Export Plug-In . SVG Version: 6.00 Build 14948)  -->
<!DOCTYPE svg PUBLIC "-//W3C//DTD SVG 1.1//EN" "http://www.w3.org/Graphics/SVG/1.1/DTD/svg11.dtd">
<svg version="1.1" id="Layer_1" xmlns="http://www.w3.org/2000/svg" xmlns:xlink="http://www.w3.org/1999/xlink" x="0px" y="0px"
	 width="14px" height="30px" viewBox="0 0 14 30" enable-background="new 0 0 14 30" xml:space="preserve">
<path fill="#1E1E1E" d="M14,9.712H9.232v-3.11c0-1.172,0.777-1.442,1.326-1.442c0.547,0,3.364,0,3.364,0V0.016L9.288,0
	C4.145,0,2.975,3.832,2.975,6.287v3.425H0v5.3h2.975c0,6.799,0,14.988,0,14.988h6.257c0,0,0-8.271,0-14.988h4.223L14,9.712z"/>
</svg>

<svg width="14" height="30" viewBox="0 0 14 30" fill="none" xmlns="http://www.w3.org/2000/svg">
<path d="M14 9.712H9.232V6.602C9.232 5.43 10.009 5.16 10.558 5.16C11.105 5.16 13.922 5.16 13.922 5.16V0.016L9.288 0C4.145 0 2.975 3.832 2.975 6.287V9.712H0V15.012H2.975C2.975 21.811 2.975 30 2.975 30H9.232C9.232 30 9.232 21.729 9.232 15.012H13.455L14 9.712Z" fill="#484848"/>
</svg>
